svg/square_rounded_badge_outline.svg

<svg xmlns="http://www.w3.org/2000/svg" viewBox="0 0 24 24"><path d="M19.5 8C21.43 8 23 6.43 23 4.5S21.43 1 19.5 1 16 2.57 16 4.5 17.57 8 19.5 8m1.5 8V9.79q-.75.21-1.5.21H19v6c0 1.66-1.34 3-3 3H8c-1.66 0-3-1.34-3-3V8c0-1.66 1.34-3 3-3h6v-.5q0-.75.21-1.5H8C5.24 3 3 5.24 3 8v8c0 2.76 2.24 5 5 5h8c2.76 0 5-2.24 5-5"/></svg>

<svg xmlns="http://www.w3.org/2000/svg" id="mdi-square-rounded-badge-outline" viewBox="0 0 24 24"><path d="M19.5 8C21.43 8 23 6.43 23 4.5C23 2.57 21.43 1 19.5 1C17.57 1 16 2.57 16 4.5C16 6.43 17.57 8 19.5 8M21 16V9.79C20.5 9.93 20 10 19.5 10C19.33 10 19.17 10 19 10V16C19 17.66 17.66 19 16 19H8C6.34 19 5 17.66 5 16V8C5 6.34 6.34 5 8 5H14C14 4.84 14 4.67 14 4.5C14 4 14.07 3.5 14.21 3H8C5.24 3 3 5.24 3 8V16C3 18.76 5.24 21 8 21H16C18.76 21 21 18.76 21 16Z" /></svg>
